!!!COM: Di Costanzo, Alessandro
!!!CDT:
!!!PTL: Il primo libro de madrigali a quattro voci
!!!PPP: Naples
!!!PPR: Sottile
!!!PDT: 1604
!!!PUB-format:
!!!RISM: D 2287
!!!rime: 284
!!!OTL: Questa vostra pietate
!!!OTL-rime: Questa vostra pietate
!!!AGN: Madrigal
!!!SCT: Trm0284i
!!!SCA: Trm0284i
!!!original-voices: 4
!!!extant-voices: 1
!!!complete: N
!!!final: A
**kern	**text
*part1	*part1
*staff1	*staff1
*I"Basso	*
*I'B	*
*oclefF4	*
*clefF4	*
*k[]	*
*omet(C)	*
*M4/2	*
=1	=1
2.A	Que-
4C#X	-sta
4C#X	vo-
8C#X	-stra
8D	pie-
2E	-ta-
=2	=2
8E	-de
8E	Non
8E	re-
8F#X	-fri-
2.G	-ge-
4G	-rio al
4.F#X	co-
8G	.
=3	=3
1A	.
1E	-re,
=4	=4
8r	.
8E	Non
8E	re-
8F	-fri-
2G	-ge-
8D	-rio,
8D	Non
8D	re-
8E	-fri-
4.F#X	-ge-
8G	-rio al
=5	=5
0A	co-
=6	=6
2D	-re
4r	.
4G	Ma
4E	dà
4.D	for-
8D	-z'al-
4BB-X	-l'ar-
=7	=7
4AA	-do-
4AA	-re,
4r	.
4A	<Ma
4F	dà
4.E	for-
8E	-z'al-
4C	-l'ar-
=8	=8
2BB	-do-
2E	-re;>
2r	.
[2C	Dun-
=9	=9
4C]	.
4C	-que
2.E	d'es-
4E	-ser
2E	pie-
=10	=10
2AA	-to-
2A	-sa ho-
2.c	-mai
4E	ces-
=11	=11
2G	-sa-
2G	-te
4r	.
4.E	In
8G	co-
4E	-sì
=12	=12
2.A	stra-
4G	-na
2F	gui-
2F	-sa,
=13	=13
8r	.
8E	Che
8D	ne
8C	sia
1BB	l'A-
2FF#X	-m'an-
=14	=14
1AA	-ci-
2D	-sa,
4r	.
4D	Poi
=15	=15
4.E	ch'el-
8BB	-la
4C	vi
4E	de-
2C	-si-
2GG	-a
=16	=16
2r	.
2E	O in
2A	e-
[2A	-stre-
=17	=17
4A]	.
4A	-mo
2G	cru-
2F#X	-del
4r	.
4G	o in
=18	=18
2E	tut-
2BB	-to
1D	pi-
=19	=19
1GG	-a,
4r	.
4G	Poi
4.A	ch'el-
8E	-la
=20	=20
4F	vi
4A	de-
2F	-si-
1C	-a,
=21	=21
2r	.
2AA	O in
2D	e-
[2D	-stre-
=22	=22
4D]	.
4D	-mo
2C	cru-
1BB	-del
=23	=23
2r	.
2E	o in
2C	tut-
2GG#X	-to
=24	=24
1BB	pi-
1E	-a,
=25	=25
1A	o in
2F	tut-
2C#X	-to
=26	=26
1E	pi-
1AAl	-a.
==	==
*-	*-
!!!RDF**kern: l = terminal long
!!!ENC: Emiliano Ricciardi
!!!END: 2017/11
!!!EED: Deutsch, Catherine
!!!EEV: 2018/07/09
!!!YEC: Copyright 2018 Emiliano Ricciardi, All Rights Reserved
!!!ONB: Translated from MusicXML on 2018/07/09 and edited by Craig Stuart Sapp
!!@@BEGIN:	VERSEDATA
!!@SOLERTI:	284
!!@CATALOGNUM:	Trm0284
!!@LAST_MODIFIED: 2020/07/12
!!@TITLE:		Questa vostra pietate
!!@GENRE:		madrigale
!!@MANUSRC:	Amz, E<sub>1</sub>, I<sub>4</sub>, P<sub>4</sub>, V<sub>13/E1</sub>
!!@PRINTSRC:	8, 9, 11, 12, 13, 15, 20, 24, 29, 33, 67, 169
!!@@BEGIN:	VERSES
!!@ABOUTIT:	Persuade la sua donna ad essere o in tutto crudele o in tutto pia.
!!@ABOUTEN:	He persuades his lady to be either fully cruel, or fully pitiful.
!!@EDITOR:	Solerti, Angelo
!!@EDITION_TITLE: Le Rime di Torquato Tasso
!!@EDITION_LOC:	Bologna
!!@EDITION_PUB:	Romagnoli-Dall’Acqua
!!@EDITION_DATE:  1898-1902
!!@EDITION_VOL:	2
!!@EDITION_PAGE:  355
!!@TRANSLATOR:	Emiliano Ricciardi and Amyrose McCue Gill
!!@VERSE:
!!	Questa vostra pietate
!!	Non refrigerio al core
!!	Ma dà forza a l'ardore;
!!	Dunque d'esser pietosa omai cessate
!!	In così strana guisa
!!	Che ne sia l'alma uccisa;
!!	Perch'ella vi desia
!!	O in estremo crudele o in tutto pia.
!!@TVERSE:
!!	This compassion of yours
!!	Brings not respite to my heart
!!	But strength to my ardor;
!!	Therefore, cease now to be compassionate
!!	In such a strange manner
!!	That my soul is slain by it;
!!	Because she desires you
!!	Whether extremely cruel or entirely compassionate.
!!@@END:		VERSES
!!@OTHER_CRIT_ED:   None
!!@ATTRIBUTION_ABOUT:	Secure
!!		<br>
!!		Among other sources (see Literary Sources), this poem appears in the authoritative manuscript It. 385, Biblioteca Estense Universitaria, Modena.
!!@DATING:	In or before 1581
!!		<Br>
!!		The earliest datable appearance of this poem is Manuzio's 1581 print of the <i>Rime</> (see Literary Sources).
!!@DEDICATEE:
!!@COMMENTARY:
!!@@END:		VERSEDATA
!!@@BEGIN:	SETTING
!!@CATALOGNUM:	Trm0284i
!!@RIMETITLE:	Questa vostra pietate
!!@SOLERTI:	284
!!@COMPOSER:	Di Costanzo, Alessandro
!!@PRINCEPSTITLE:	Il primo libro de madrigali a quattro voci
!!@PRINCEPSLOC:	Napoli
!!@NORMLOC:	Naples
!!@NORMPUB:	Sottile
!!@NORMPUBSHORT:	Sottile
!!@PRINCEPSPUB:	Sottile
!!@PRINCEPSYEAR:	1604
!!@PRINCEPSRISM:	D 2287
!!@REPRINTS:	
!!@OVOICES:	4
!!@EXTANTVOICES:	1
!!@PARTBOOKS:	
!!@EXTPARTBOOKS:	
!!@OCLEFS:	F4
!!@OMENSURATION:	C
!!@OKEYSIG:	-
!!@FINAL:	A
!!@TIMPEDITOR:	Deutsch, Catherine
!!@NOTE:		
!!@@END:		SETTING
